X:150
T: Die Rabenmutter
N: Q0114Q
O: Mitteleuropa, Deutschland (DDR) , Sachsen
R: Ballade, Kinds - Mord, Strafe
M: 4/4
L: 1/8
K: G
D2 | G3DG2A2 | B3AG2
A2 | B3AB2c2 | d4c2B2 | A6
d2 | e3cB2A2 | G4F4 | G6

